;FLAVOR:Marlin
;TIME:5091
;Filament used: 3.22652m
;Layer height: 0.2
;MINX:64
;MINY:78
;MINZ:0.2
;MAXX:156
;MAXY:142
;MAXZ:15
;Generated with Cura_SteamEngine main
M82 ;absolute extrusion mode
; Ender 3 Custom Start G-code
G92 E0 ; Reset Extruder
G28 ; Home all axes
M104 S175 ; Start heating up the nozzle most of the way
M190 S60 ; Start heating the bed, wait until target temperature reached
M109 S200 ; Finish heating the nozzle
G1 Z2.0 F3000 ; Move Z Axis up little to prevent scratching of Heat Bed
G1 X0.1 Y20 Z0.3 F5000.0 ; Move to start position
G1 X0.1 Y200.0 Z0.3 F1500.0 E15 ; Draw the first line
G1 X0.4 Y200.0 Z0.3 F5000.0 ; Move to side a little
G1 X0.4 Y20 Z0.3 F1500.0 E30 ; Draw the second line
G92 E0 ; Reset Extruder
G1 Z2.0 F3000 ; Move Z Axis up little to prevent scratching of Heat Bed
G1 X5 Y20 Z0.3 F5000.0 ; Move over to prevent blob squish
G92 E0
G92 E0
G1 F1500 E-6.5
;LAYER_COUNT:75
;LAYER:0
M107
G0 F6000 X67.886 Y80.627 Z0.2
G0 X64.001 Y89.525
;TYPE:SKIRT
G1 F1500 E0
G1 F1200 X64.01 Y88.86 E0.02212
G1 X64.063 Y87.924 E0.0533
G1 X64.195 Y86.995 E0.08451
G1 X64.406 Y86.081 E0.11571
G1 X64.694 Y85.189 E0.14689
G1 X65.057 Y84.324 E0.17809
G1 X65.492 Y83.493 E0.20928
G1 X65.996 Y82.703 E0.24045
G1 X66.566 Y81.958 E0.27165
G1 X67.198 Y81.264 E0.30287
G1 X67.886 Y80.627 E0.33405
G1 X68.626 Y80.051 E0.36524
G1 X69.412 Y79.539 E0.39644
G1 X70.239 Y79.097 E0.42763
G1 X71.101 Y78.727 E0.45883
G1 X71.991 Y78.431 E0.49003
G1 X72.903 Y78.213 E0.52122
G1 X73.83 Y78.072 E0.5524
G1 X74.701 Y78.013 E0.58144
G1 X75.33 Y78 E0.60236
G1 X144.451 Y78.001 E2.90134
G1 X145.149 Y78.011 E2.92456
G1 X146.085 Y78.065 E2.95574
G1 X147.013 Y78.197 E2.98691
G1 X147.927 Y78.409 E3.01812
G1 X148.819 Y78.698 E3.04931
G1 X149.684 Y79.061 E3.08051
G1 X150.514 Y79.497 E3.11169
G1 X151.305 Y80.002 E3.1429
G1 X152.049 Y80.573 E3.1741
G1 X152.742 Y81.205 E3.20529
G1 X153.379 Y81.893 E3.23648
G1 X153.954 Y82.634 E3.26767
G1 X154.465 Y83.42 E3.29886
G1 X154.907 Y84.248 E3.33007
G1 X155.276 Y85.11 E3.36126
G1 X155.571 Y86 E3.39244
G1 X155.789 Y86.912 E3.42363
G1 X155.929 Y87.84 E3.45485
G1 X155.987 Y88.701 E3.48355
G1 X156 Y89.33 E3.50447
G1 X155.999 Y130.4 E4.87047
G1 X155.99 Y131.127 E4.89465
G1 X155.939 Y132.064 E4.92586
G1 X155.807 Y132.992 E4.95704
G1 X155.598 Y133.906 E4.98822
G1 X155.311 Y134.799 E5.01942
G1 X154.949 Y135.665 E5.05064
G1 X154.515 Y136.496 E5.08182
G1 X154.011 Y137.287 E5.11301
G1 X153.442 Y138.032 E5.14419
G1 X152.811 Y138.727 E5.17542
G1 X152.124 Y139.365 E5.2066
G1 X151.385 Y139.942 E5.23778
G1 X150.599 Y140.454 E5.26898
G1 X149.773 Y140.897 E5.30016
G1 X148.911 Y141.269 E5.33138
G1 X148.022 Y141.565 E5.36255
G1 X147.11 Y141.785 E5.39375
G1 X146.183 Y141.926 E5.42494
G1 X145.299 Y141.987 E5.45441
G1 X144.67 Y142 E5.47533
G1 X75.565 Y141.999 E7.77378
G1 X74.867 Y141.99 E7.79699
G1 X73.931 Y141.938 E7.82817
G1 X73.002 Y141.806 E7.85938
G1 X72.088 Y141.596 E7.89057
G1 X71.195 Y141.309 E7.92177
G1 X70.33 Y140.946 E7.95297
G1 X69.499 Y140.512 E7.98415
G1 X68.708 Y140.008 E8.01535
G1 X67.963 Y139.438 E8.04655
G1 X67.269 Y138.807 E8.07775
G1 X66.632 Y138.12 E8.10891
G1 X66.055 Y137.38 E8.14012
G1 X65.543 Y136.594 E8.17132
G1 X65.1 Y135.767 E8.20252
G1 X64.729 Y134.906 E8.2337
G1 X64.433 Y134.016 E8.2649
G1 X64.214 Y133.104 E8.29609
G1 X64.073 Y132.177 E8.32728
G1 X64.013 Y131.288 E8.35692
G1 X64 Y130.658 E8.37787
G1 X64.001 Y89.525 E9.74596
G0 F6000 X64.401 Y89.531
G1 F1200 X64.41 Y88.866 E9.76808
G1 X64.462 Y87.946 E9.79873
G1 X64.594 Y87.035 E9.82935
G1 X64.805 Y86.139 E9.85996
G1 X65.092 Y85.264 E9.89059
G1 X65.455 Y84.418 E9.92121
G1 X65.889 Y83.606 E9.95183
G1 X66.392 Y82.835 E9.98245
G1 X66.961 Y82.111 E10.01308
G1 X67.589 Y81.439 E10.04367
G1 X68.274 Y80.823 E10.07431
G1 X69.01 Y80.27 E10.10493
G1 X69.791 Y79.782 E10.13556
G1 X70.611 Y79.364 E10.16617
G1 X71.465 Y79.019 E10.19681
G1 X72.345 Y78.749 E10.22742
G1 X73.245 Y78.557 E10.25803
G1 X74.159 Y78.443 E10.28867
G1 X74.712 Y78.413 E10.30709
G1 X75.33 Y78.4 E10.32765
G1 X144.445 Y78.401 E12.62642
G1 X145.143 Y78.411 E12.64964
G1 X146.062 Y78.464 E12.68025
G1 X146.973 Y78.597 E12.71088
G1 X147.869 Y78.808 E12.74149
G1 X148.743 Y79.096 E12.7721
G1 X149.59 Y79.459 E12.80275
G1 X150.401 Y79.894 E12.83336
G1 X151.171 Y80.398 E12.86397
G1 X151.895 Y80.967 E12.89459
G1 X152.567 Y81.597 E12.92523
G1 X153.182 Y82.282 E12.95585
G1 X153.735 Y83.018 E12.98647
G1 X154.222 Y83.799 E13.01708
G1 X154.639 Y84.62 E13.04771
G1 X154.984 Y85.474 E13.07834
G1 X155.253 Y86.354 E13.10895
G1 X155.445 Y87.255 E13.13959
G1 X155.558 Y88.168 E13.17019
G1 X155.587 Y88.712 E13.18831
G1 X155.6 Y89.33 E13.20886
G1 X155.599 Y130.395 E14.57469
G1 X155.59 Y131.122 E14.59887
G1 X155.539 Y132.041 E14.62949
G1 X155.408 Y132.953 E14.66013
G1 X155.198 Y133.849 E14.69074
G1 X154.912 Y134.724 E14.72136
G1 X154.551 Y135.571 E14.75198
G1 X154.117 Y136.383 E14.7826
G1 X153.615 Y137.155 E14.81323
G1 X153.047 Y137.88 E14.84386
G1 X152.419 Y138.553 E14.87448
G1 X151.735 Y139.169 E14.9051
G1 X151 Y139.723 E14.93571
G1 X150.22 Y140.212 E14.96633
G1 X149.4 Y140.631 E14.99696
G1 X148.547 Y140.977 E15.02757
G1 X147.667 Y141.248 E15.0582
G1 X146.767 Y141.441 E15.08881
G1 X145.853 Y141.556 E15.11945
G1 X145.288 Y141.587 E15.13827
G1 X144.67 Y141.6 E15.15883
G1 X75.57 Y141.599 E17.45711
G1 X74.872 Y141.59 E17.48032
G1 X73.953 Y141.538 E17.51094
G1 X73.042 Y141.407 E17.54155
G1 X72.146 Y141.197 E17.57216
G1 X71.271 Y140.91 E17.60279
G1 X70.424 Y140.548 E17.63342
G1 X69.612 Y140.114 E17.66405
G1 X68.841 Y139.612 E17.69465
G1 X68.116 Y139.044 E17.72528
G1 X67.443 Y138.415 E17.75592
G1 X66.828 Y137.731 E17.78651
G1 X66.274 Y136.996 E17.81712
G1 X65.786 Y136.215 E17.84775
G1 X65.367 Y135.395 E17.87838
G1 X65.021 Y134.542 E17.909
G1 X64.751 Y133.662 E17.93961
G1 X64.558 Y132.761 E17.97026
G1 X64.444 Y131.848 E18.00086
G1 X64.413 Y131.277 E18.01988
G1 X64.4 Y130.658 E18.04048
G1 X64.401 Y89.531 E19.40836
G0 F6000 X64.801 Y89.536
G1 F1200 X64.81 Y88.871 E19.43048
G1 X64.862 Y87.969 E19.46054
G1 X64.994 Y87.076 E19.49056
G1 X65.204 Y86.198 E19.52059
G1 X65.491 Y85.341 E19.55065
G1 X65.853 Y84.514 E19.58067
G1 X66.286 Y83.722 E19.61069
G1 X66.788 Y82.971 E19.64074
G1 X67.355 Y82.267 E19.6708
G1 X67.981 Y81.617 E19.70082
G1 X68.662 Y81.024 E19.73085
G1 X69.394 Y80.494 E19.76091
G1 X70.169 Y80.031 E19.79094
G1 X70.982 Y79.638 E19.82097
G1 X71.827 Y79.318 E19.85102
G1 X72.696 Y79.075 E19.88103
G1 X73.584 Y78.909 E19.91108
G1 X74.723 Y78.813 E19.9491
G1 X75.33 Y78.8 E19.96929
G1 X144.439 Y78.801 E22.26787
G1 X145.137 Y78.811 E22.29109
G1 X146.039 Y78.864 E22.32114
G1 X146.932 Y78.996 E22.35116
G1 X147.81 Y79.207 E22.3812
G1 X148.666 Y79.495 E22.41123
G1 X149.493 Y79.857 E22.44126
G1 X150.285 Y80.292 E22.47131
G1 X151.036 Y80.794 E22.50136
G1 X151.739 Y81.361 E22.5314
G1 X152.389 Y81.988 E22.56144
G1 X152.981 Y82.67 E22.59147
G1 X153.511 Y83.401 E22.6215
G1 X153.973 Y84.177 E22.65154
G1 X154.366 Y84.99 E22.68158
G1 X154.684 Y85.835 E22.71161
G1 X154.927 Y86.705 E22.74165
G1 X155.092 Y87.593 E22.77169
G1 X155.187 Y88.723 E22.80941
G1 X155.2 Y89.33 E22.8296
G1 X155.199 Y130.39 E24.19526
G1 X155.19 Y131.117 E24.21944
G1 X155.139 Y132.019 E24.24949
G1 X155.008 Y132.913 E24.27954
G1 X154.799 Y133.791 E24.30956
G1 X154.513 Y134.648 E24.33961
G1 X154.152 Y135.476 E24.36965
G1 X153.72 Y136.268 E24.39966
G1 X153.219 Y137.02 E24.42971
G1 X152.653 Y137.724 E24.45976
G1 X152.028 Y138.375 E24.48977
G1 X151.347 Y138.969 E24.51983
G1 X150.616 Y139.5 E24.54988
G1 X149.842 Y139.964 E24.5799
G1 X149.029 Y140.358 E24.60994
G1 X148.185 Y140.678 E24.63997
G1 X147.315 Y140.923 E24.67003
G1 X146.428 Y141.089 E24.70004
G1 X145.277 Y141.187 E24.73846
G1 X144.67 Y141.2 E24.75866
G1 X75.575 Y141.199 E27.05676
G1 X74.877 Y141.19 E27.07998
G1 X73.976 Y141.139 E27.11
G1 X73.082 Y141.007 E27.14005
G1 X72.204 Y140.798 E27.17007
G1 X71.347 Y140.511 E27.20013
G1 X70.52 Y140.15 E27.23015
G1 X69.727 Y139.717 E27.2602
G1 X68.976 Y139.216 E27.29022
G1 X68.272 Y138.65 E27.32027
G1 X67.621 Y138.024 E27.35031
G1 X67.028 Y137.343 E27.38034
G1 X66.498 Y136.612 E27.41037
G1 X66.034 Y135.837 E27.44041
G1 X65.64 Y135.024 E27.47046
G1 X65.32 Y134.18 E27.50048
G1 X65.076 Y133.31 E27.53054
G1 X64.91 Y132.422 E27.56058
G1 X64.813 Y131.267 E27.59913
G1 X64.8 Y130.658 E27.61939
G1 X64.801 Y89.536 E28.98712
G1 F1500 E22.48712
;MESH:HeartRateMonitorCaseV1.stl
G0 F6000 X78.219 Y102.501
G0 X81.328 Y118.004
;TYPE:WALL-INNER
G1 F1500 E28.98712
G1 F1200 X81.075 Y118.1 E28.99612
G1 X78.906 Y118.1 E29.06826
G1 X78.717 Y118.03 E29.07496
G1 X78.565 Y117.914 E29.08132
G1 X78.446 Y117.731 E29.08858
G1 X78.4 Y117.577 E29.09393
G1 X78.4 Y102.5 E29.59539
G1 X78.446 Y102.269 E29.60323
G1 X78.565 Y102.086 E29.61049
G1 X78.717 Y101.97 E29.61685
G1 X78.906 Y101.9 E29.62355
G1 X81.069 Y101.903 E29.69549
G1 X81.377 Y102.032 E29.7066
G1 X81.548 Y102.255 E29.71594
G1 X81.598 Y102.44 E29.72232
G1 X81.599 Y117.55 E30.22488
G1 X81.551 Y117.74 E30.2314
G1 X81.328 Y118.004 E30.24289
G0 F6000 X81.156 Y117.627
;TYPE:WALL-OUTER
G1 F1200 X81.035 Y117.698 E30.24756
G1 X78.956 Y117.696 E30.3167
G1 X78.855 Y117.638 E30.32058
G1 X78.802 Y117.535 E30.32443
G1 X78.8 Y102.5 E30.8245
G1 X78.855 Y102.362 E30.82944
G1 X78.956 Y102.304 E30.83331
G1 X81.023 Y102.301 E30.90206
G1 X81.155 Y102.372 E30.90705
G1 X81.2 Y102.48 E30.91094
G1 X81.2 Y117.517 E31.41107
G1 X81.156 Y117.627 E31.41501
G1 F1500 E24.91501
G0 F6000 X81.5 Y117.627
G0 X81.436 Y117.897
G0 X79.001 Y118.281
G0 X75.8 Y118.281
G0 X75.6 Y130.4
;TYPE:WALL-INNER
G1 F1500 E31.41501
G1 F1200 X144.4 Y130.4 E33.70331
G1 X144.4 Y89.6 E35.06032
G1 X75.6 Y89.6 E37.34862
G1 X75.6 Y130.4 E38.70563
G0 F6000 X75.2 Y130.8
;TYPE:WALL-OUTER
G1 F1200 X144.8 Y130.8 E41.02054
G1 X144.8 Y89.2 E42.40416
G1 X75.2 Y89.2 E44.71906
G1 X75.2 Y130.8 E46.10269
G1 F1500 E39.60269
G0 F6000 X75.47 Y130.53
G0 X99.386 Y130.2
G0 X99.501 Y125.781
G0 X99.386 Y125.6
;TYPE:WALL-INNER
G1 F1500 E46.10269
G1 F1200 X99.105 Y125.453 E46.11323
G1 X98.96 Y125.264 E46.12116
G1 X98.905 Y125.08 E46.12754
G1 X98.9 Y109 E46.66237
G1 X98.935 Y108.795 E46.66928
G1 X99.031 Y108.624 E46.67581
G1 X99.145 Y108.515 E46.68105
G1 X99.451 Y108.401 E46.69191
G1 X120.549 Y108.401 E47.39364
G1 X120.778 Y108.467 E47.40156
G1 X120.949 Y108.601 E47.40879
G1 X121.065 Y108.795 E47.41631
G1 X121.098 Y108.947 E47.42148
G1 X121.095 Y125.08 E47.95806
G1 X121.04 Y125.264 E47.96445
G1 X120.895 Y125.453 E47.97237
G1 X120.614 Y125.6 E47.98292
G1 X99.386 Y125.6 E48.68897
G0 F6000 X99.34 Y125.12
;TYPE:WALL-OUTER
G1 F1200 X99.301 Y125.046 E48.69175
G1 X99.3 Y109 E49.22544
G1 X99.381 Y108.838 E49.23147
G1 X99.451 Y108.805 E49.23404
G1 X120.549 Y108.805 E49.93576
G1 X120.657 Y108.874 E49.94003
G1 X120.7 Y108.982 E49.94389
G1 X120.699 Y125.046 E50.47818
G1 X120.66 Y125.12 E50.48097
G1 X120.535 Y125.198 E50.48587
G1 X99.466 Y125.2 E51.18662
G1 X99.34 Y125.12 E51.19159
G1 F1500 E44.69159
G0 F6000 X99 Y125.12
G0 X99.072 Y125.428
G0 X120.928 Y125.428
G0 X121.28 Y120.579
G0 X138.231 Y117.634
G0 X138.931 Y118.097
;TYPE:WALL-INNER
G1 F1500 E51.19159
G1 F1200 X138.672 Y118.004 E51.20074
G1 X138.534 Y117.879 E51.20693
G1 X138.4 Y117.573 E51.21804
G1 X138.4 Y102.5 E51.71937
G1 X138.475 Y102.209 E51.72937
G1 X138.623 Y102.032 E51.73704
G1 X138.931 Y101.903 E51.74815
G1 X141.094 Y101.9 E51.82009
G1 X141.283 Y101.97 E51.82679
G1 X141.435 Y102.086 E51.83315
G1 X141.554 Y102.269 E51.84041
G1 X141.6 Y102.5 E51.84825
G1 X141.6 Y117.577 E52.34971
G1 X141.554 Y117.731 E52.35506
G1 X141.435 Y117.914 E52.36232
G1 X141.283 Y118.03 E52.36868
G1 X141.094 Y118.1 E52.37538
G1 X138.931 Y118.097 E52.44732
G0 F6000 X138.844 Y117.627
;TYPE:WALL-OUTER
G1 F1200 X138.8 Y117.517 E52.45126
G1 X138.8 Y102.5 E52.95073
G1 X138.834 Y102.387 E52.95466
G1 X138.965 Y102.302 E52.95985
G1 X141.044 Y102.304 E53.029
G1 X141.145 Y102.362 E53.03287
G1 X141.2 Y102.5 E53.03781
G1 X141.198 Y117.535 E53.53788
G1 X141.145 Y117.638 E53.54173
G1 X141.044 Y117.696 E53.5456
G1 X138.977 Y117.699 E53.61435
G1 X138.844 Y117.627 E53.61938
G0 F6000 X138.573 Y118.362
;TYPE:SKIN
G1 F1200 X138.393 Y118.246 E53.62651
G1 X138.148 Y117.956 E53.63913
G1 X138.044 Y117.599 E53.6515
G1 X138.04 Y102.406 E54.15682
G1 X138.043 Y102.366 E54.15816
G1 X138.124 Y102.095 E54.16756
G1 X138.32 Y101.82 E54.17879
G1 X138.48 Y101.69 E54.18565
G1 X138.84 Y101.542 E54.1986
G1 X141.158 Y101.54 E54.27569
G1 X141.454 Y101.65 E54.2862
G1 X141.698 Y101.836 E54.2964
G1 X141.891 Y102.133 E54.30818
G1 X141.957 Y102.466 E54.31947
G1 X141.958 Y117.632 E54.8239
G1 X141.872 Y117.899 E54.83323
G1 X141.698 Y118.166 E54.84383
G1 X141.426 Y118.36 E54.85494
G1 X141.156 Y118.46 E54.86451
G1 X138.889 Y118.454 E54.93992
G1 X138.573 Y118.362 E54.95086
G1 F1500 E48.45086
G0 F6000 X138.685 Y118.127
G0 X138.231 Y117.634
G0 X121.28 Y120.58
G0 X99.055 Y125.858
G1 F1500 E54.95086
G1 F1200 X98.835 Y125.689 E54.96009
G1 X98.63 Y125.418 E54.97139
G1 X98.541 Y125.097 E54.98247
G1 X98.542 Y108.967 E55.51896
G1 X98.623 Y108.596 E55.53159
G1 X98.87 Y108.265 E55.54532
G1 X99.322 Y108.042 E55.56209
G1 X120.597 Y108.044 E56.2697
G1 X120.805 Y108.088 E56.27677
G1 X121.056 Y108.213 E56.28609
G1 X121.262 Y108.409 E56.29555
G1 X121.458 Y108.857 E56.31182
G1 X121.459 Y125.096 E56.85193
G1 X121.37 Y125.418 E56.86304
G1 X121.138 Y125.725 E56.87584
G1 X120.702 Y125.958 E56.89228
G1 X99.459 Y125.955 E57.59882
G1 X99.055 Y125.858 E57.61264
G1 F1500 E51.11264
G0 F6000 X99.169 Y125.619
G0 X98.72 Y118.127
G0 X81.779 Y117.566
G0 X81.441 Y118.359
G1 F1500 E57.61264
G1 F1200 X81.121 Y118.453 E57.62374
G1 X78.844 Y118.46 E57.69947
G1 X78.546 Y118.35 E57.71003
G1 X78.3 Y118.163 E57.72031
G1 X78.11 Y117.871 E57.7319
G1 X78.04 Y117.597 E57.74131
G1 X78.043 Y102.466 E58.24456
G1 X78.109 Y102.133 E58.25586
G1 X78.303 Y101.834 E58.26771
G1 X78.574 Y101.64 E58.27879
G1 X78.844 Y101.54 E58.28837
G1 X81.111 Y101.546 E58.36377
G1 X81.442 Y101.647 E58.37528
G1 X81.74 Y101.887 E58.38801
G1 X81.906 Y102.176 E58.39909
G1 X81.96 Y102.441 E58.40809
G1 X81.956 Y117.677 E58.91484
G1 X81.801 Y118.041 E58.928
G1 X81.441 Y118.359 E58.94397
G1 F1500 E52.44397
G0 F6000 X81.315 Y118.127
G0 X79.001 Y118.281
G0 X75.8 Y118.281
G0 X75.96 Y130.04
G1 F1500 E58.94397
G1 F1200 X144.04 Y130.04 E61.20832
G1 X144.04 Y89.96 E62.54139
G1 X75.96 Y89.96 E64.80574
G1 X75.96 Y130.04 E66.13881
G0 F6000 X76.664 Y129.838
G1 F1200 X76.159 Y129.334 E66.16254
G0 F6000 X76.159 Y128.768
G1 F1200 X77.23 Y129.838 E66.21289
G0 F6000 X77.795 Y129.838
G1 F1200 X76.159 Y128.202 E66.28984
G0 F6000 X76.159 Y127.637
G1 F1200 X78.361 Y129.838 E66.39339
G0 F6000 X78.927 Y129.838
G1 F1200 X76.159 Y127.071 E66.52357
G0 F6000 X76.159 Y126.505
G1 F1200 X79.492 Y129.838 E66.68034
G0 F6000 X80.058 Y129.838
G1 F1200 X76.159 Y125.939 E66.86374
G0 F6000 X76.159 Y125.374
G1 F1200 X80.624 Y129.838 E67.07374
G0 F6000 X81.19 Y129.838
G1 F1200 X76.159 Y124.808 E67.31036
G0 F6000 X76.159 Y124.242
G1 F1200 X81.755 Y129.838 E67.57357
G0 F6000 X82.321 Y129.838
G1 F1200 X76.159 Y123.677 E67.86339
G0 F6000 X76.159 Y123.111
G1 F1200 X82.887 Y129.838 E68.17983
G0 F6000 X83.452 Y129.838
G1 F1200 X76.159 Y122.545 E68.52287
G0 F6000 X76.159 Y121.98
G1 F1200 X84.018 Y129.838 E68.89251
G0 F6000 X84.584 Y129.838
G1 F1200 X76.159 Y121.414 E69.28878
G0 F6000 X76.159 Y120.848
G1 F1200 X85.149 Y129.838 E69.71164
G0 F6000 X85.715 Y129.838
G1 F1200 X76.159 Y120.283 E70.1611
G0 F6000 X76.159 Y119.717
G1 F1200 X86.281 Y129.838 E70.63718
G0 F6000 X86.846 Y129.838
G1 F1200 X76.159 Y119.151 E71.13987
G0 F6000 X76.159 Y118.586
G1 F1200 X87.412 Y129.838 E71.66915
G0 F6000 X87.978 Y129.838
G1 F1200 X76.159 Y118.02 E72.22506
G0 F6000 X76.159 Y117.454
G1 F1200 X88.543 Y129.838 E72.80756
G0 F6000 X89.109 Y129.838
G1 F1200 X76.159 Y116.888 E73.41669
G0 F6000 X76.159 Y116.323
G1 F1200 X89.675 Y129.838 E74.05242
G0 F6000 X90.24 Y129.838
G1 F1200 X79.06 Y118.658 E74.57829
G0 F6000 X79.624 Y118.656
G1 F1200 X90.806 Y129.838 E75.10426
G0 F6000 X91.372 Y129.838
G1 F1200 X80.187 Y118.653 E75.63037
G0 F6000 X80.75 Y118.651
G1 F1200 X91.938 Y129.838 E76.15659
